X: 39846
T: Thirty Bottle Hughie
R: reel
M: 4/4
K: Gmajor
GA|BGEG DGEG|cAAB cAFA|BGEG DGEG|cBAB G2 GA
BGEG DGEG|cAAB cAFA|BGEG DGEG|cBAB G2||
GA|BGdG BGdG|cAFA cAFA|BGdG BGdG|cAFA G2 GA|
BGdG BGdG|cAFA EADA|BGdG BGdG|cAFA G2||
GA|BAdB e2 dB|cAAB cAFA|BAdB e2 dB|cAFA G2 GA|
BAdB e2 dB|cAAB cAFA|BAdB e2 dB|cAFA G2||

